packages/components/src/components/icon/common/ic-notification.svg

<svg width="32" height="32" viewBox="0 0 32 32" fill="none" xmlns="http://www.w3.org/2000/svg">
<rect width="32" height="32" rx="16" fill="#F2F3F4"/>
<path fill-rule="evenodd" clip-rule="evenodd" d="M23 21V15C23 11.65 20.64 8.85 17.5 8.17V7C17.5 6.17 16.83 5.5 16 5.5C15.17 5.5 14.5 6.17 14.5 7V8.17C11.36 8.85 8.99999 11.65 8.99999 15V21L7.70999 22.29C7.07999 22.92 7.51999 24 8.40999 24H14C14 25.0952 14.9374 26 16 26C17.0625 26 18 25.0952 18 24H23.58C24.47 24 24.92 22.92 24.29 22.29L23 21ZM17 24H15C15 24.5523 15.5 25 16 25C16.5 25 17 24.5523 17 24ZM22 15V21.4142L23.5829 22.9971L8.41428 22.9995L9.99999 21.4142V15C9.99999 12.1689 11.984 9.73804 14.7116 9.14734L15.5 8.97662V7C15.5 6.72228 15.7223 6.5 16 6.5C16.2777 6.5 16.5 6.72228 16.5 7V8.97662L17.2883 9.14734C20.0159 9.73804 22 12.1689 22 15Z" fill="#333333"/>
</svg>

<svg xmlns="http://www.w3.org/2000/svg" width="32" height="32" fill="none"><rect width="32" height="32" fill="#F2F3F4" rx="16"/><path fill="#333" fill-rule="evenodd" d="M23 21v-6c0-3.35-2.36-6.15-5.5-6.83V7c0-.83-.67-1.5-1.5-1.5s-1.5.67-1.5 1.5v1.17C11.36 8.85 9 11.65 9 15v6l-1.29 1.29c-.63.63-.19 1.71.7 1.71H14c0 1.095.937 2 2 2s2-.905 2-2h5.58c.89 0 1.34-1.08.71-1.71L23 21zm-6 3h-2c0 .552.5 1 1 1s1-.448 1-1zm5-9v6.414l1.583 1.583L8.414 23 10 21.414V15a5.993 5.993 0 014.712-5.853l.788-.17V7c0-.278.222-.5.5-.5s.5.222.5.5v1.977l.788.17A5.993 5.993 0 0122 15z" clip-rule="evenodd"/></svg>
